X:1
T: Boy in the Gap
C:
R:Reel
Q: 232
K:D
M:4/4
L:1/8
AG|FD DF d2 cA|AB GB AB GE|FD DF d2 cB|((3ABc) GE ED D2|FD DF d2 cA|AB GB AB GE|FD DF d2 cB|((3ABc) GE ED D2|
f2 fg fe df|e2 fe ed cB|AB cd ef ga|fa ge ed d2|f2 fg fe df|e2 fe ed cB|AB cd ef ga|a2 ge ed d2|
f2 fg fe df|e2 fe ed cB|AB cd ef ga|fa ge ed d2|f2 fg fe df|e2 fe ed cB|AB cd ef ga|a2 ge ed d2|
FD DF d2 cA|AB GB AB GE|FD DF d2 cB|((3ABc) GE ED D2|FD DF d2 cA|AB GB AB GE|FD DF d2 cB|((3ABc) GE ED D2||
